X: 17
T: Fermoy Lasses, The
Z: Andy Holbert
S: https://thesession.org/tunes/219#setting54055
R: reel
M: 4/4
L: 1/8
K: Emin
|:GE3 B,2E2|GE2B 2cBA|GE3 B2GB|A2F2 BcBA|
GE3 B,2E2|GE2B 2cBA|G3B d2B2|A2F2 BcBA:|
|:G3B dBB2|BABd eg3|dgeg d2B2|AFDF AcBA|
GFGB dBB2|BABd eg3|g3e d2B2|AFDF AcBA:|

%-------------------- TUNE SEPARATOR --------------------%

